X:1
T:Hail, All Hail!
T:C. S. Kauffman, 1901
T:Hail, All Hail!
T:Public Domain
T:Public Domain
C:C. S. Kauffman, 1901
Z:Public Domain
%%score ( 1 2 ) 3
L:1/8
M:4/4
K:G
V:1 treble 
V:2 treble 
V:3 bass 
V:1
 [DGB]3"^Unison" [DG^A] [DGB]2 [DGc]2 | [DGB]2 [B,DG]2 [B,E]2 [B,D]2 | %2
w: 1.~Hail this glor- ious|Eas- ter morn- ing,|
w: 2.~Hail! O earth, your|ris- en Sav- ior,|
w: 3.~Sound a- loud the|East- er chor- us,|
 [B,D]2 [B,G]2 [B,A]2 [B,G]2 | [CF]6 z2 | [Fc]3 [FB] [Fc]2 [Fd]2 | [Fc]2 [FA]2 [DF]2 D2 | %6
w: Night has fled a-|way,|O’er the east- ern|hills the dawn- ing|
w: For to- day He|rose—|Con- quer- or of|death for- ev- er,|
w: Send the news a-|far,|While in glo- ry|shin- ing o’er us,|
 [DF]2 [FA]2 [Fd]2 (E_E) | [DB]6 z2 | [DGB]3 [DG^A] [DGB]2 [DGc]2 | [DGB]2 [B,DG]2 [B,E]2 [B,D]2 | %10
w: in light of day. *|and|cloud their beau- ty|blend- ing, East- er|
w: umphed o’er His foes. *|a-|gain your Sav- ior|glor- ious, Rich- est|
w: our morn- ing star. *|of|joy, and peace, and|glad- ness, Let our|
 [B,D]2 [B,DG]2 [B,DA]2 [B,DG]2 | [CE]6 z2 | [EG]3 [EG] [EF]2 [EG]2 | [DGd]2 [DGB]2 [EG]2 E2 | %14
w: mem- ’ries sing, Flowers|sweet|their fra- grance lend-|ing, Hail with your|
w: trib- ute bring; O-|ver|all the world vic-|tor- ious, Hail, all|
w: voic- es sing; Cheer|each|heart and ban- ish|sad- ness, While we|
 D^CD^D [CE]2 [=CF]2 | [B,G]6 z2 ||"^Refrain" [GBd]3 [GB^c] [GBd]2 [GBe]2 | %17
w: your ris- en King! * *|||
w: your ris- en King! Hail, all|hail|this East- er morn-|
w: our ris- en King. * *|||
 [Fd]2 [F^c]2 [F=c]2 [FA]2 | [Ac]3 [^GB] [Ac]2 [=G^c]2 | [DAd]2 [FA]2 [DGB]4 | B3 c B2 F2 | %21
w: ||||
w: ing, Hail, all hail|this day of days!|Hail, all hail|the sight a- dorn-|
w: ||||
 A2 G2 F2 E2 | D^CD^D [CE]2 [=CF]2 | [B,G]6 z2 |] %24
w: |||
w: all hail the songs|||
w: |||
V:2
 x8 | x8 | x8 | x8 | x8 | x6 D2 | x6 c2 | x8 | x8 | x8 | x8 | x8 | x8 | x6 E2 | x8 | x8 || x8 | %17
w: |||||Breaks|Sun|||||||joy||||
w: |||||Tri-|Hail|||||||hail||||
w: |||||Beams|Songs|||||||hail||||
 x8 | x8 | x8 | F4 ^D4 | E4 F2 E2 | x8 | x8 |] %24
w: |||||||
w: |||ing; Hail,|of praise! *|||
w: |||||||
V:3
 G,,2 [D,G,B,]2 G,,2 [D,G,B,]2 | G,,2 [D,G,]2 [D,G,]2 [D,G,]2 | G,,2 [D,G,]2 B,,2 [D,G,]2 | %3
 (A,,2 [D,F,]2 [D,F,]2 [D,F,]2) | (A,,2 [D,A,C]2) D,,2 [D,A,C]2 | A,,2 [D,A,C]2 [D,A,C]2 [D,A,C]2 | %6
 D,,2 [D,F,C]2 D,,2 [D,F,C]2 | (G,,2 [D,G,B,]2 [D,G,B,]2 [D,G,B,]2) | %8
 (G,,2 [D,G,B,]2) G,,2 [D,G,B,]2 | G,,2 [D,G,]2 [D,G,]2 [D,G,]2 | G,,2 [D,G,]2 B,,2 [D,G,]2 | %11
 (C,2 [E,G,]2 [E,G,]2 [E,G,]2) | (C,2 [E,G,C]2) C,2 [E,G,C]2 | B,,2 [D,G,]2 ^C,2 [E,G,^A,]2 | %14
 D,2 [G,B,]2 [A,,A,]2 D,2 | ([G,,D,G,]2 B,,D, G,2) z2 || F,,2 [D,G,B,]2 B,,2 [D,G,B,]2 | %17
 A,,2 [D,F,A,]2 [D,F,A,]2 [D,F,C]2 | F,,2 [D,F,C]2 [A,,A,]2 [G,,G,]2 | [F,,F,]2 DC (B,G,F,E,) | %20
 ^D,2 [A,B,]2 B,,2 [A,B,]2 | E,2 [G,B,]2 ^C,2 [E,G,^A,]2 | D,2 [G,B,]2 [A,,A,]2 D,2 | %23
 [G,,D,G,]6 z2 |] %24

